icons/1_Primary/Satang.svg

<svg width="1024" height="1024" fill="none" xmlns="http://www.w3.org/2000/svg"><g clip-path="url(#a)"><path d="M512 1024c282.77 0 512-229.23 512-512S794.77 0 512 0 0 229.23 0 512s229.23 512 512 512Z" fill="#728DBE"/><path d="m627.2 512.2-57.1-57.1-58.2-58.3c-32.1-32.2-32.1-84.4 0-116.6L395.5 396.8c-32.2 32.2-32.2 84.4 0 116.6l56.9 57.1 58.2 58.2c32.2 32.2 32.2 84.4 0 116.6L627 628.7c32.2-32.2 32.2-84.4 0-116.6l.2.1ZM512.7 736.6c-4.8 8.9-11.9 16.5-20.4 21.9-31.2 16.4-70.6 11.4-96.6-14.7-31.5-31.6-32.2-82.6-1.5-115l44.1-44 58.2 58.2c25.3 25.3 30.7 63 16.2 93.6Zm-1.2-449.2c4.8-8.9 11.9-16.5 20.4-21.9 31.2-16.4 70.6-11.4 96.6 14.7 31.5 31.6 32.2 82.6 1.5 115l-44.1 44-58.3-58.2c-25.3-25.3-30.6-63-16.1-93.6Z" fill="#fff"/></g><defs><clipPath id="a"><path fill="#fff" d="M0 0h1024v1024H0z"/></clipPath></defs></svg>

<svg width="1024" height="1024" viewBox="0 0 1024 1024" fill="none" xmlns="http://www.w3.org/2000/svg">
<g clip-path="url(#clip0_2_3399)">
<path d="M512 1024C794.77 1024 1024 794.77 1024 512C1024 229.23 794.77 0 512 0C229.23 0 0 229.23 0 512C0 794.77 229.23 1024 512 1024Z" fill="#728DBE"/>
<path d="M627.2 512.2L570.1 455.1L511.9 396.8C479.8 364.6 479.8 312.4 511.9 280.2L395.5 396.8C363.3 429 363.3 481.2 395.5 513.4L452.4 570.5L510.6 628.7C542.8 660.9 542.8 713.1 510.6 745.3L627 628.7C659.2 596.5 659.2 544.3 627 512.1L627.2 512.2ZM512.7 736.6C507.9 745.5 500.8 753.1 492.3 758.5C461.1 774.9 421.7 769.9 395.7 743.8C364.2 712.2 363.5 661.2 394.2 628.8L438.3 584.8L496.5 643C521.8 668.3 527.2 706 512.7 736.6ZM511.5 287.4C516.3 278.5 523.4 270.9 531.9 265.5C563.1 249.1 602.5 254.1 628.5 280.2C660 311.8 660.7 362.8 630 395.2L585.9 439.2L527.6 381C502.3 355.7 497 318 511.5 287.4Z" fill="white"/>
</g>
<defs>
<clipPath id="clip0_2_3399">
<rect width="1024" height="1024" fill="white"/>
</clipPath>
</defs>
</svg>
